X:235
T:Edradynate House
R:Strathspey
C:A.C. McIntyre
B:The Athole Collection
M:C|
L:1/8
K:D
A,|D<D F>A d>AFD|A,>EC>E G2 G>A|F<D F>A G>EC>A,|
B,>DC>E D2D:|
A|d>ef>d B<g e>c|a>fd>f e2 e>A|d>ef>d B<g e>c|d>AF>D A2 Ac|
d>ef>d B>ec>A|G<E E>F G2 G>A|d>AF>D G>EC>A,|B,>DC>E D2D||

